X:1
T:Title
L:1/8
M:2/4
K:F
V:1 treble nm="Grand Piano"
V:1
 z2[Q:1/4=100] A,2 | F3 E | D2 A,2 | C3 B,/A,/ | B,2 B,2 | G3 F | E2 ^C2 | E3 D/^C/ | D2 D2 | %9
 G3 G | G2 G_A | A3 A | A2 AG | F3 E | D2 C2 | B,3 D | ^C4- | C2 AG | F3 E | D2 ^C2 | E3 D/^C/ | %21
 D4- |[M:1/4] D2 | A2 |[M:2/4] d3 d | c2 c2 | BB Ac | B2 B2 | c3 c | B2 B2 | BA GB | A2 A2 | B3 A | %33
 G2 E2 | A3 G | F2 D2 | F3 F | F2 G2 | E4- | E2 A2 | A3 A | ^CC E2 | D4- | D2 D2 | F3 E | D^C E2 | %46
 D4- | D2 z2 |] %48

